homework-11/build/images/icons/digital.svg

<svg xmlns="http://www.w3.org/2000/svg" viewBox="0 0 36 34" id="digital"><g id="service"><path fill="#94e1d3" d="M32.5 33h-29c-.83 0-1.5-.67-1.5-1.5v-29C2 1.67 2.67 1 3.5 1h29c.83 0 1.5.67 1.5 1.5v29c0 .83-.67 1.5-1.5 1.5zM31 4H5v26h26V4zM8.5 5.5H14c.83 0 1.5.67 1.5 1.5s-.67 1.5-1.5 1.5H9.5V13c0 .83-.67 1.5-1.5 1.5s-1.5-.67-1.5-1.5V5.5h2zM6.5 21c0-.83.67-1.5 1.5-1.5s1.5.67 1.5 1.5v4.5H14c.83 0 1.5.67 1.5 1.5s-.67 1.5-1.5 1.5H6.5V21zM22 5.5h7.5V13c0 .83-.67 1.5-1.5 1.5s-1.5-.67-1.5-1.5V8.5H22c-.83 0-1.5-.67-1.5-1.5s.67-1.5 1.5-1.5zm0 20h4.5V21c0-.83.67-1.5 1.5-1.5s1.5.67 1.5 1.5v7.5H22c-.83 0-1.5-.67-1.5-1.5s.67-1.5 1.5-1.5z" id="6"/></g></svg>

<svg xmlns="http://www.w3.org/2000/svg" viewBox="0 0 36 34" id="digital">
	<g id="service">
		<g id="6">
			<path fill="#94e1d3" d="M32.5 33L3.5 33C2.67 33 2 32.33 2 31.5L2 2.5C2 1.67 2.67 1 3.5 1L32.5 1C33.33 1 34 1.67 34 2.5L34 31.5C34 32.33 33.33 33 32.5 33ZM31 4L5 4L5 30L31 30L31 4ZM8.5 5.5L14 5.5L14 5.5C14.83 5.5 15.5 6.17 15.5 7C15.5 7.83 14.83 8.5 14 8.5L14 8.5L9.5 8.5L9.5 13L9.5 13C9.5 13.83 8.83 14.5 8 14.5C7.17 14.5 6.5 13.83 6.5 13L6.5 13L6.5 7.5L6.5 7.5L6.5 5.5L8.5 5.5L8.5 5.5ZM6.5 21L6.5 21C6.5 20.17 7.17 19.5 8 19.5C8.83 19.5 9.5 20.17 9.5 21L9.5 21L9.5 25.5L14 25.5L14 25.5C14.83 25.5 15.5 26.17 15.5 27C15.5 27.83 14.83 28.5 14 28.5L14 28.5L8.5 28.5L8.5 28.5L6.5 28.5L6.5 26.5L6.5 26.5L6.5 21ZM22 5.5L22 5.5L27.5 5.5L27.5 5.5L29.5 5.5L29.5 7.5L29.5 7.5L29.5 13L29.5 13C29.5 13.83 28.83 14.5 28 14.5C27.17 14.5 26.5 13.83 26.5 13L26.5 13L26.5 8.5L22 8.5L22 8.5C21.17 8.5 20.5 7.83 20.5 7C20.5 6.17 21.17 5.5 22 5.5ZM22 25.5L22 25.5L26.5 25.5L26.5 21L26.5 21C26.5 20.17 27.17 19.5 28 19.5C28.83 19.5 29.5 20.17 29.5 21L29.5 21L29.5 26.5L29.5 26.5L29.5 28.5L27.5 28.5L27.5 28.5L22 28.5L22 28.5C21.17 28.5 20.5 27.83 20.5 27C20.5 26.17 21.17 25.5 22 25.5Z" />
		</g>
	</g>
</svg>
